wordpress/wp-content/themes/bluearrow-2017/assets/images/header-icon-blog.svg

<?xml version="1.0" encoding="UTF-8"?>
<svg width="30px" height="30px" viewBox="0 0 30 30" version="1.1" xmlns="http://www.w3.org/2000/svg" xmlns:xlink="http://www.w3.org/1999/xlink">
    <!-- Generator: Sketch 41.2 (35397) - http://www.bohemiancoding.com/sketch -->
    <title>header-icon-blog</title>
    <desc>Created with Sketch.</desc>
    <defs></defs>
    <g id="export" stroke="none" stroke-width="1" fill="none" fill-rule="evenodd">
        <g id="header-icon-blog" fill="#FFFFFF">
            <path d="M1.22,15.7 C1.22003134,7.92352175 7.52022972,1.61740103 15.2967045,1.61006305 C23.0731793,1.60272507 29.3852675,7.89694468 29.3999748,15.673409 C29.4146821,23.4498734 23.1264469,29.7679234 15.35,29.79 C11.6077942,29.7953081 8.01675115,28.3138114 5.36686131,25.671423 C2.71697146,23.0290346 1.22530057,19.4422058 1.22,15.7 M27.67,15.7 C27.6699738,10.6972123 24.6542101,6.18779779 20.030682,4.27707206 C15.4071539,2.36634632 10.0877737,3.43116754 6.55600663,6.97440143 C3.02423952,10.5176353 1.97666657,15.8404391 3.90236936,20.4577494 C5.82807214,25.0750596 10.3472384,28.0761903 15.35,28.06 C22.156047,28.0270227 27.6590845,22.5061182 27.67,15.7" id="Shape"></path>
            <path d="M15,7.47 L15.25,7.47 C19.6545833,7.47799417 23.264045,10.9681713 23.42,15.37 L24.86,15.37 C24.7245289,10.1587839 20.4629753,6.00365833 15.25,6 L15,6 L15,7.47 Z" id="Shape"></path>
            <path d="M15,11 L15.25,11 C17.692009,11.0063982 19.7072931,12.9121559 19.85,15.35 L21.26,15.35 C21.1206946,12.1382466 18.4747717,9.60698033 15.26,9.61 L15.01,9.61 L15,11 Z" id="Shape"></path>
            <path d="M13,14.52 C11.0780491,14.52 9.52,16.0780491 9.52,18 C9.52,19.9219509 11.0780491,21.48 13,21.48 C14.9219509,21.48 16.48,19.9219509 16.48,18 C16.4745073,16.0803288 14.9196712,14.5254927 13,14.52 Z M13,20.31 C11.7296619,20.2879995 10.7155487,19.244239 10.7301526,17.9737944 C10.7447565,16.7033497 11.7825949,15.6831767 13.0531031,15.6903835 C14.3236112,15.6975903 15.3498095,16.7294714 15.35,18 C15.3500929,18.6196439 15.1012354,19.2133456 14.6593363,19.6477231 C14.2174372,20.0821005 13.619551,20.3207298 13,20.31 Z" id="Shape"></path>
        </g>
    </g>
</svg>

<svg width="30" height="30" viewBox="0 0 30 30" xmlns="http://www.w3.org/2000/svg"><title>header-icon-blog</title><g fill="#FFF" fill-rule="evenodd"><path d="M1.22 15.7c0-7.776 6.3-14.083 14.077-14.09 7.776-.007 14.088 6.287 14.103 14.063.015 7.777-6.274 14.095-14.05 14.117A14.11 14.11 0 0 1 1.22 15.7m26.45 0a12.36 12.36 0 1 0-12.32 12.36c6.806-.033 12.31-5.554 12.32-12.36"/><path d="M15 7.47h.25a8.19 8.19 0 0 1 8.17 7.9h1.44A9.62 9.62 0 0 0 15.25 6H15v1.47z"/><path d="M15 11h.25a4.62 4.62 0 0 1 4.6 4.35h1.41a6 6 0 0 0-6-5.74h-.25L15 11zM13 14.52A3.48 3.48 0 1 0 16.48 18 3.49 3.49 0 0 0 13 14.52zm0 5.79a2.31 2.31 0 1 1 .08-4.62 2.31 2.31 0 0 1-.08 4.62z"/></g></svg>
